X: 47
%
U:~=!turn!
T: The Bog of Gight
C:Marshall
O:Scotland
B:Keith Norman MacDonald : "The Skye collection of the best reels & strathspeys extant" : 1887
Z:Ralph Palmer
R:Strathspey
M:C
L:1/8
K:A
c | e>fe<c A>cAE | TF>EFA B/2B/2B (Bc) | e>fe<c A<cA>E | F<AE>C A,/2A,/2A, A,2 |
(e>f)(e>c) (A>c)(A>E) | TF>EFA B/2B/2B ~B2 | (ce)(Tfe) (dc)(TBA) | (G>AB)>c A/2A/2A A ||
g | ~a>ba>e ~a>ba>e | Tf>ef>a b/2b/2b b2 | a>ba<e f>ac<a | TB>AB<c A/2A/2A (Ag) |
~a>ba>e ~a>ba>e | Tf>ef<a b/2b/2b b2 | a>ef<a e<fc<e | TB>AB<c A/2A/2A A|]


